X: 18329
T: Humours Of Westmeath, The
R: slip jig
M: 9/8
K: Dmajor
|:d3 dAG FED|D3 dAF G2E|ABc dAG FGA|=cBc E2 F G2 E:|
|:d2 g fdf ece|df/g/d fdf g2 e|d2 g fdf ece|=cBc E2 F G2 E:|

